X:1
T: The Green Banner
C:
R:Reel
Q: 232
K:G
M:4/4
L:1/8
|:G2|DG BG dG BG|ef gf dB AB|GF GA BA BG|AB AF GF EF|
DG BG dG BG|ef gf dB AB|GB dg ec AF|G2 G2 G2:|
|:d2|gb eg dg Be|dB ge dB AB|GB dB ed cB|AG AB A2 DC|
B,D GB d2 cB|AB cd e2 ge|dB GB AG FA|G2 G2 G2:|
